www/assets/icons/phonelink_off.svg

<svg width="24" height="24" viewBox="0 0 24 24" xmlns="http://www.w3.org/2000/svg" fill='currentColor'><path d="M22 5.9999V3.9999H6.82L8.82 5.9999H22ZM1.92 1.6499L0.65 2.9199L2.47 4.7399C2.18 5.0799 2 5.5199 2 5.9999V16.9999H0V19.9999H17.73L20.08 22.3499L21.35 21.0799L1.92 1.6499ZM4 6.2699L14.73 16.9999H4V6.2699ZM23 7.9999H17C16.45 7.9999 16 8.4499 16 8.9999V13.1799L18 15.1799V9.9999H22V16.9999H19.82L22.82 19.9999H23C23.55 19.9999 24 19.5499 24 18.9999V8.9999C24 8.4499 23.55 7.9999 23 7.9999Z"/></svg>

<svg xmlns="http://www.w3.org/2000/svg" width="24" height="24" viewBox="0 0 24 24" fill='currentColor'><path d="M22 6V4H6.82l2 2zM1.92 1.65.65 2.92l1.82 1.82C2.18 5.08 2 5.52 2 6v11H0v3h17.73l2.35 2.35 1.27-1.27zM4 6.27 14.73 17H4zM23 8h-6c-.55 0-1 .45-1 1v4.18l2 2V10h4v7h-2.18l3 3H23c.55 0 1-.45 1-1V9c0-.55-.45-1-1-1"/></svg>
